svgs/sharp-regular/chess-king-piece.svg

<svg xmlns="http://www.w3.org/2000/svg" viewBox="0 0 256 512"><!--! Font Awesome Pro 6.6.0 by @fontawesome - https://fontawesome.com License - https://fontawesome.com/license (Commercial License) Copyright 2024 Fonticons, Inc. --><path d="M144 16l0-16L112 0l0 16 0 16L96 32 80 32l0 32 16 0 16 0 0 32L72 96 24 96l0 40 3.1 8 24.6 64L32 208l0 48 24 0 5.8 0L48.7 352l48.4 0 13.1-96 35.5 0 13.1 96 48.4 0-13.1-96 5.8 0 24 0 0-48-19.7 0 24.6-64 3.1-8 0-40-48 0-40 0 0-32 16 0 16 0 0-32-16 0-16 0 0-16zm8.9 192l-49.8 0L78.5 144l99 0-24.6 64zM53.8 464l17.8-32 112.9 0 17.8 32L53.8 464zM256 461.9L212.7 384 43.3 384 0 461.9 0 464l0 48 48 0 160 0 48 0 0-48 0-2.1z"/></svg>

<svg xmlns="http://www.w3.org/2000/svg" viewBox="0 0 256 512"><!--! Font Awesome Pro 6.4.0 by @fontawesome - https://fontawesome.com License - https://fontawesome.com/license (Commercial License) Copyright 2023 Fonticons, Inc. --><path d="M144 16V0H112V16 32H96 80V64H96h16V96H72 24v40l3.1 8 24.6 64H32v48H56h5.8L48.7 352H97.2l13.1-96h35.5l13.1 96h48.4l-13.1-96H200h24V208H204.3l24.6-64 3.1-8V96H184 144V64h16 16V32H160 144V16zm8.9 192H103.1L78.5 144h99l-24.6 64zM53.8 464l17.8-32H184.5l17.8 32H53.8zM256 461.9L212.7 384H43.3L0 461.9V464v48H48 208h48V464v-2.1z"/></svg>
